dist/img/sign-in-up.svg

<svg width="11" height="12" viewBox="0 0 11 12" fill="none" xmlns="http://www.w3.org/2000/svg">
<path d="M4.25001 0.166748H9.50001C10.1417 0.166748 10.6667 0.691748 10.6667 1.33341V10.6667C10.6667 11.3084 10.1417 11.8334 9.50001 11.8334H4.25001C3.60834 11.8334 3.08334 11.3084 3.08334 10.6667V9.50008H4.25001V10.6667H9.50001V1.33341H4.25001V2.50008H3.08334V1.33341C3.08334 0.691748 3.60834 0.166748 4.25001 0.166748Z" fill="#969696"/>
<path d="M4.88583 8.09409L5.70833 8.91658L8.625 5.99992L5.70833 3.08325L4.88583 3.90575L6.39083 5.41659H0.75V6.58325H6.39083L4.88583 8.09409Z" fill="#969696"/>
</svg>

<svg width="11" height="12" fill="none" xmlns="http://www.w3.org/2000/svg"><path d="M4.25.167H9.5a1.17 1.17 0 011.167 1.166v9.334A1.17 1.17 0 019.5 11.833H4.25a1.17 1.17 0 01-1.167-1.166V9.5H4.25v1.167H9.5V1.333H4.25V2.5H3.083V1.333A1.17 1.17 0 014.25.167z" fill="#969696"/><path d="M4.886 8.094l.822.823L8.625 6 5.708 3.083l-.822.823 1.505 1.51H.75v1.167h5.64L4.887 8.094z" fill="#969696"/></svg>
